X: 61
M: 2/4
L: 1/8
K: G
V: 1
[| D D E F | E2 D2 | D D E D | A4 | D G B A |
V: 2 brace=2 staves=2
[| [DB,G,][DB,G,] [EB,G,][FB,G,] | [E2B,2G,2] [D2B,2] | [DCF,][DCF,] [ECF,][DCF,] | [A4D4C4] | DG BA & B,2 [^D2B,2] |
[A2E2B,2] [G2E2B,2] | [AFA,][AFD] [BG^C][AGC] | [A4F4D4] | AA dB & D2 [F2D2] | [A2C2] [G2B,2] |
V: 3 clef=bass middle=d
[| [d4G4] | [d4G4] | [d4A4] | [d2D2] f2 | g2 ^f2 |
e4 | A2 A2 | d2 D2 | f2 d2 | ^d2 e2 |
g2 g2 & B2 GB | [g4c4] | a2 a^a & c2 ^c2 | [b4d4] | dA d>[gG] | [g3G3]z |]


